storage/app/icons/tabler/filled/mood-kid.svg

<!--
version: "2.9"
unicode: "f7f5"
-->
<svg
  xmlns="http://www.w3.org/2000/svg"
  width="24"
  height="24"
  viewBox="0 0 24 24"
  fill="currentColor"
>
  <path d="M17 3.34a10 10 0 1 1 -14.995 8.984l-.005 -.324l.005 -.324a10 10 0 0 1 7.046 -9.232a3 3 0 0 0 2.949 3.556a1 1 0 0 0 0 -2l-.117 -.007a1 1 0 0 1 .117 -1.993c1.726 0 3.453 .447 5 1.34zm-1.8 10.946a1 1 0 0 0 -1.414 .014a2.5 2.5 0 0 1 -3.572 0a1 1 0 0 0 -1.428 1.4a4.5 4.5 0 0 0 6.428 0a1 1 0 0 0 -.014 -1.414zm-6.19 -5.286l-.127 .007a1 1 0 0 0 .117 1.993l.127 -.007a1 1 0 0 0 -.117 -1.993zm6 0l-.127 .007a1 1 0 0 0 .117 1.993l.127 -.007a1 1 0 0 0 -.117 -1.993z" />
</svg>

<svg xmlns="http://www.w3.org/2000/svg" width="24" height="24" fill="currentColor" viewBox="0 0 24 24"><path d="M17 3.34a10 10 0 1 1-14.995 8.984L2 12l.005-.324a10 10 0 0 1 7.046-9.232A3 3 0 0 0 12 6a1 1 0 0 0 0-2l-.117-.007A1 1 0 0 1 12 2c1.726 0 3.453.447 5 1.34m-1.8 10.946a1 1 0 0 0-1.414.014 2.5 2.5 0 0 1-3.572 0 1 1 0 0 0-1.428 1.4 4.5 4.5 0 0 0 6.428 0 1 1 0 0 0-.014-1.414M9.01 9l-.127.007A1 1 0 0 0 9 11l.127-.007A1 1 0 0 0 9.01 9m6 0-.127.007A1 1 0 0 0 15 11l.127-.007A1 1 0 0 0 15.01 9"/></svg>
